packages/elvis-assets-icons/icons/svg/src/powermeter_old.svg

<svg width="24" height="24" viewBox="0 0 24 24" fill="none" xmlns="http://www.w3.org/2000/svg">
<path d="M12 10.5C11.1 10.5 10.2 11.1 9.9 12H8.3C8.7 10.3 10.2 9 12 9C12.5 9 13 9.1 13.5 9.2L16 5.5C16.1 5.3 16.3 5.2 16.6 5.2C16.7 5.2 16.9 5.2 17 5.3C17.1 5.4 17.3 5.6 17.3 5.8C17.4 6 17.3 6.2 17.2 6.4L14.7 10.1C15.2 10.6 15.6 11.3 15.7 12H14.1C13.8 11.1 12.9 10.5 12 10.5Z" fill="black"/>
<path d="M16.2 17.2H7.79998C7.39998 17.2 7.09998 16.9 7.09998 16.5V16.4C7.09998 16 7.39998 15.7 7.79998 15.7H16.2C16.6 15.7 16.9 16 16.9 16.4V16.5C16.9 16.9 16.6 17.2 16.2 17.2Z" fill="black"/>
<path fill-rule="evenodd" clip-rule="evenodd" d="M19.1105 0H4.79006C3.79558 0 3 0.796681 3 1.79253V22.2075C3 23.2033 3.79558 24 4.79006 24H19C19.9945 24 21 23.2033 21 22.2075V1.79253C20.9006 0.796681 20.105 0 19.1105 0ZM19.5 21.5C19.5 21.5996 19.5 22.5 18.4521 22.5H5.5C4.5 22.5 4.5 21.5996 4.5 21.5L4.49171 13.3444H19.5V21.5ZM19.5 12H4.49171L4.5 4.29688H19.5V12ZM19.5 2.98755H4.5V2.5C4.5 2.40041 4.5 1.5 5.5 1.5H18.5C18.5994 1.5 19.5 1.5 19.5 2.5V2.98755Z" fill="black"/>
</svg>

<svg width="24" height="24" fill="none" xmlns="http://www.w3.org/2000/svg"><path d="M12 10.5c-.9 0-1.8.6-2.1 1.5H8.3c.4-1.7 1.9-3 3.7-3 .5 0 1 .1 1.5.2L16 5.5c.1-.2.3-.3.6-.3.1 0 .3 0 .4.1.1.1.3.3.3.5.1.2 0 .4-.1.6l-2.5 3.7c.5.5.9 1.2 1 1.9h-1.6c-.3-.9-1.2-1.5-2.1-1.5zM16.2 17.2H7.8c-.4 0-.7-.3-.7-.7v-.1c0-.4.3-.7.7-.7h8.4c.4 0 .7.3.7.7v.1c0 .4-.3.7-.7.7z" fill="#000"/><path fill-rule="evenodd" clip-rule="evenodd" d="M19.11 0H4.79C3.796 0 3 .797 3 1.793v20.415C3 23.203 3.796 24 4.79 24H19c.994 0 2-.797 2-1.793V1.793C20.9.797 20.105 0 19.11 0zm.39 21.5c0 .1 0 1-1.048 1H5.5c-1 0-1-.9-1-1l-.008-8.156H19.5V21.5zm0-9.5H4.492L4.5 4.297h15V12zm0-9.012h-15V2.5c0-.1 0-1 1-1h13c.1 0 1 0 1 1v.488z" fill="#000"/></svg>
